X: 105
U:~=!turn!
M:C
L:1/8
K:E dorian
{/c}d>fA>f d/2e/2f/2g/2 a>f | {/c}d>fA>f {/c}d>fA>f | {/c}d>fA>f {/c}(d/2e/2).f/2.g/2 a>f | {/f}g>Af>A e>Ac>e |
{/c}dfAf {/c}d/2e/2f/2g/2 a>f | {/c}dfAf {/c}d>A{/c}d>f | B<gA<f G<eF<d | {/F}G>A,F>A, E<A,C<E !segno!|]


